!!!COM:	Bach, Johann Sebastian
!!!OMV:	Allein zu dir, Herr Jesu Christ
!!!OTL:	Allein zu dir, Herr Jesu Christ
**kern	**fb	**kern	**kern	**kern	**kern
*part5	*part5	*part4	*part3	*part2	*part1
*staff5	*	*staff4	*staff3	*staff2	*staff1
*I"Continuo	*	*I"Voice	*I"Voice	*I"Voice	*I"Voice
*I'Cont.	*	*I'V	*I'V	*I'V	*I'V
*clefF4	*	*clefF4	*clefGv2	*clefG2	*clefG2
*Trd0c0	*	*	*	*	*
*k[]	*	*k[]	*k[]	*k[]	*k[]
*M4/4	*	*M4/4	*M4/4	*M4/4	*M4/4
4A	.	4A	8AL	4e	4cc
.	.	.	8BJ	.	.
=2	=2	=2	=2	=2	=2
4E	6	4E	8cL	8eL	4g
.	.	.	8BJ	8dJ	.
4F	5 3	4F	4A	8cL	8aL
.	6 4	.	.	8dJ	8bJ
8EL	6_	8EL	4G	8eL	8ccL
8DJ	.	8DJ	.	8fJ	8ddJ
4C	5	4C	8GL	4g	4ee
.	6	.	8AJ	.	.
=3	=3	=3	=3	=3	=3
4G	.	4G	8B	4.g	4dd
.	.	.	16ALL	.	.
.	.	.	16BJJ	.	.
4A	7	4A	8cL	.	2cc
.	#6\	.	8dJ	8f#X	.
4G	6 4	4G	4e	4g	.
4GG	5 3	4G	4d	4g	4b
=4	=4	=4	=4	=4	=4
2.C;	.	2.C;	2.e;	2.g;	2.cc;
4C	.	4C	4c	4g	4ee
=5	=5	=5	=5	=5	=5
4G	8	4G	4.B	8gL	4dd
.	7	.	.	8fJ	.
4A	9	4A	.	4e	4cc
.	8	.	8A	.	.
4.E	.	4.E	8GL	[2e	8bL
.	.	.	8AJ	.	8aJ
.	.	.	4B	.	4g
8D	.	8D	.	.	.
=6	=6	=6	=6	=6	=6
8CL	6 3	8CL	4c	8eL]	4a
8cJ	#4|	8cJ	.	8f#XJ	.
8BL	#6\	8BL	8dL	8g#XL	8bL
8AJ	.	8AJ	8eJ	8aJ	8ccJ
4G#X	7	4G#X	8fnL	4b	4dd
.	6 5	.	8eJ	.	.
4A	.	4A	4e	4a	8ccL
.	.	.	.	.	8bJ
=	=	=	=	=	=
!!linebreak:original
4D	6 5	4D	8fL	4a	4cc
.	.	.	8dJ	.	.
4E	#	4E	8B	4g#X	4b
.	.	.	16cLL	.	.
.	.	.	16dJJ	.	.
4AA;	.	4AA;	4c;	4e;	4a;
=7:|!	=7:|!	=7:|!	=7:|!	=7:|!	=7:|!
4A	.	4A	4c	4a	4ee
=8	=8	=8	=8	=8	=8
8DL	7	8DL	4c	4a	8ffL
8EJ	.	8EJ	.	.	8eeJ
4F	6 4 3	4F	8BL	4a	4dd
.	.	.	8AJ	.	.
4E	#	4E	4B	4g#X	8eeL
.	.	.	.	.	8ddJ
8AL	.	8AL	8cL	4e	4cc
8GJ	.	8GnJ	8BJ	.	.
=9	=9	=9	=9	=9	=9
8FL	6	8FL	4A	4a	4dd
8EJ	.	8EJ	.	.	.
8DL	5 4 2	8DL	4A	4g	4ee
8C#XJ	.	8C#XJ	.	.	.
4D;	.	4D;	4d;	4f;	4a;
4GG#X	6	4G#X	4B	4e	4ee
=10	=10	=10	=10	=10	=10
4AA	6	4A	4c	4a	8ffL
.	5	.	.	.	8eeJ
4BB	7	4B	4d	8aL	4dd
.	6	.	.	8gJ	.
8CL	.	4c	4c	4g	8eeL
8DJ	.	.	.	.	8ddJ
4E	6	4E	4c	4g	4cc
=11	=11	=11	=11	=11	=11
4F#X	6 5	4F#X	4c	4a	4dd
4G#X	6	4G#X	4B	4b	4ee
4A;	.	4A;	4c;	4e;	4a;
8EL	6	8EL	4e	4gn	4cc
8F#J	.	8F#J	.	.	.
=12	=12	=12	=12	=12	=12
!!pagebreak:original
4G	8	4G	4d	8gL	4b
.	#7\	.	.	8f#XJ	.
8C#XL	6	8C#XL	4e	4e	4a
8D#XJ	.	8D#XJ	.	.	.
4E	.	4E	4B	8eL	4g
.	.	.	.	8gJ	.
4AA	6 #	4AA	4c#X	8fnL	4a
.	5	.	.	8eJ	.
=13	=13	=13	=13	=13	=13
8DL	5_	8DnL	4A	8dL	8fL
8FJ	..	8FJ	.	8c#XJ	8eJ
8EL	.	8EL	4A	4d	4f
8DJ	.	8DJ	.	.	.
4A;	#	4A;	4A;	4c#;	4e;
[4F	nr5	[4F	4A	4cn	4a
=14	=14	=14	=14	=14	=14
4F]	6 4 2	4F]	8BL	4d	4g
.	.	.	8AJ	.	.
8EL	6	8EL	2G	8gL	2cc
8DJ	.	8DJ	.	8fJ	.
8EL	6	8EL	.	4e	.
8FJ	.	8FJ	.	.	.
4G	.	4G	4G	4d	4b
=15	=15	=15	=15	=15	=15
4C;	.	4C;	4G;	4e;	4cc;
4C	.	4c	4e	4e	4g
8CL	6 #4| 2	8cL	4d	4f#X	4a
8DJ	.	8dJ	.	.	.
8CL	7 #5| 2	8cL	4d	4g#X	4b
8BBJ	.	8BJ	.	.	.
=16	=16	=16	=16	=16	=16
8AAL	.	8AL	8eL	4a	8ccL
8BB	.	8B	8d	.	8ddJ
8AA	.	8A	8c	4e	4ee
8GGJ	.	8GnJ	8BJ	.	.
4.FF	6	4.F	8AL	[2a	4dd
.	.	.	8BJ	.	.
.	.	.	8c	.	4cc
8EE	6 4	8E	16dLL	.	.
.	.	.	16eJJ	.	.
=17	=17	=17	=17	=17	=17
!!linebreak:original
4DD	6 5	4D	4f	4a]	4b
4EE	8 #	4E	8eL	4g#X	4b
.	7	.	8dJ	.	.
4AA;	#	4AA;	4c#X;	4e;	4a;
=||	=||	=||	=||	=||	=||
*-	*-	*-	*-	*-	*-
!!!system-decoration: s1,s2,s3,s4,s5
